material/.icons/material/facebook-messenger.svg

<svg xmlns="http://www.w3.org/2000/svg" viewBox="0 0 24 24"><path d="M12 2C6.36 2 2 6.13 2 11.7c0 2.91 1.19 5.44 3.14 7.17.16.13.26.35.27.57l.05 1.78c.04.57.61.94 1.13.71l1.98-.87c.17-.06.36-.09.53-.06.9.27 1.9.4 2.9.4 5.64 0 10-4.13 10-9.7C22 6.13 17.64 2 12 2m6 7.46l-2.93 4.67c-.47.73-1.47.92-2.17.37l-2.34-1.73a.6.6 0 00-.72 0l-3.16 2.4c-.42.33-.97-.17-.68-.63l2.93-4.67c.47-.73 1.47-.92 2.17-.4l2.34 1.76a.6.6 0 00.72 0l3.16-2.4c.42-.33.97.17.68.63z"/></svg>

<?xml version="1.0" encoding="UTF-8"?><!DOCTYPE svg PUBLIC "-//W3C//DTD SVG 1.1//EN" "http://www.w3.org/Graphics/SVG/1.1/DTD/svg11.dtd"><svg xmlns="http://www.w3.org/2000/svg" xmlns:xlink="http://www.w3.org/1999/xlink" version="1.1" id="mdi-facebook-messenger" width="24" height="24" viewBox="0 0 24 24"><path d="M12,2C6.36,2 2,6.13 2,11.7C2,14.61 3.19,17.14 5.14,18.87C5.3,19 5.4,19.22 5.41,19.44L5.46,21.22C5.5,21.79 6.07,22.16 6.59,21.93L8.57,21.06C8.74,21 8.93,20.97 9.1,21C10,21.27 11,21.4 12,21.4C17.64,21.4 22,17.27 22,11.7C22,6.13 17.64,2 12,2M18,9.46L15.07,14.13C14.6,14.86 13.6,15.05 12.9,14.5L10.56,12.77C10.35,12.61 10.05,12.61 9.84,12.77L6.68,15.17C6.26,15.5 5.71,15 6,14.54L8.93,9.87C9.4,9.14 10.4,8.95 11.1,9.47L13.44,11.23C13.66,11.39 13.95,11.39 14.16,11.23L17.32,8.83C17.74,8.5 18.29,9 18,9.46Z" /></svg>
